proprietary/assets/icons/op-kantoor/brievenbus-met-envelop.svg

<svg height="64" viewBox="0 0 64 64" width="64" xmlns="http://www.w3.org/2000/svg"><path d="m0 0h64v64h-64z" fill="none"/><path d="m22.8391 35.949h16v6h-16z" transform="matrix(.7071 -.7071 .7071 .7071 -18.5085 33.2143)"/><path d="m52.3618 25h-5.6752l4.6469 4.6469-23.5284 23.5288-17.0881-17.0881 11.0873-11.0876h-5.675l-9.6688 9.6689c-.7838.7833-.7838 2.054 0 2.8373l19.9259 19.9259c.3762.3762.8867.5878 1.4186.5878.532 0 1.0425-.2116 1.4187-.5878l26.3663-26.3666c.7838-.7833.7838-2.054 0-2.8373z"/><path d="m59.7665 20.2706-3.5031-7.7515c-.6665-.9521-1.7555-1.5191-2.9178-1.5191h-45.8144c-.8457 0-1.5312.6855-1.5312 1.5312v16.4688c0 .8062.9747 1.2098 1.5447.6398l4.4553-4.6398s-3.8199-10.3544-3.8986-10.6251c-.0955-.3286.1865-.3749.1865-.3749l4.5129 7.5542c.5357.8967 1.5033 1.4458 2.5479 1.4458h42.6561c1.4042 0 2.34-1.4498 1.7617-2.7294z"/></svg>

<?xml version="1.0" encoding="utf-8"?>
<!-- Generator: Adobe Illustrator 17.1.0, SVG Export Plug-In . SVG Version: 6.00 Build 0)  -->
<svg version="1.2" baseProfile="tiny" xmlns="http://www.w3.org/2000/svg" xmlns:xlink="http://www.w3.org/1999/xlink" x="0px"
	 y="0px" width="64px" height="64px" viewBox="0 0 64 64" xml:space="preserve">
<g id="_x36_4px_Boxes">
	<rect fill="none" width="64" height="64"/>
</g>
<g id="Icon">
	<g>
		<rect x="22.8391" y="35.949" transform="matrix(0.7071 -0.7071 0.7071 0.7071 -18.5085 33.2143)" width="16" height="6"/>
		<path d="M52.3618,25h-5.6752l4.6469,4.6469L27.8051,53.1757L10.717,36.0876L21.8043,25h-5.675l-9.6688,9.6689
			c-0.7838,0.7833-0.7838,2.054,0,2.8373l19.9259,19.9259c0.3762,0.3762,0.8867,0.5878,1.4186,0.5878
			c0.532,0,1.0425-0.2116,1.4187-0.5878L55.59,31.0655c0.7838-0.7833,0.7838-2.054,0-2.8373L52.3618,25z"/>
		<path d="M59.7665,20.2706l-3.5031-7.7515C55.5969,11.567,54.5079,11,53.3456,11H7.5312C6.6855,11,6,11.6855,6,12.5312V29
			c0,0.8062,0.9747,1.2098,1.5447,0.6398L12,25c0,0-3.8199-10.3544-3.8986-10.6251C8.0059,14.0463,8.2879,14,8.2879,14
			l4.5129,7.5542C13.3365,22.4509,14.3041,23,15.3487,23h42.6561C59.409,23,60.3448,21.5502,59.7665,20.2706z"/>
	</g>
</g>
</svg>
